svg/emoji_u1f994.svg

<?xml version="1.0" encoding="UTF-8" standalone="no"?>
<!DOCTYPE svg PUBLIC "-//W3C//DTD SVG 1.1//EN" "http://www.w3.org/Graphics/SVG/1.1/DTD/svg11.dtd">
<svg width="100%" height="100%" viewBox="0 0 128 128" version="1.1" xmlns="http://www.w3.org/2000/svg" xmlns:xlink="http://www.w3.org/1999/xlink" xml:space="preserve" xmlns:serif="http://www.serif.com/" style="fill-rule:evenodd;clip-rule:evenodd;stroke-linejoin:round;stroke-miterlimit:2;">
    <path id="path17274" d="M72.461,29.07C72.453,29.072 72.438,29.082 72.43,29.084C70.689,29.021 65.284,33.176 63.609,34.99C61.919,36.82 58.68,40.199 58.68,40.199C58.68,40.199 56.061,36.442 55.006,35.582C54.162,34.547 53.413,33.721 53.109,33.721C52.405,33.721 49.021,37.735 47.143,40.025C45.1,37.802 42.555,34.65 41.99,34.457C41.394,33.673 40.824,33.15 40.369,33.15C38.75,33.15 34.154,43.047 33.068,45.43C31.362,44.035 28.386,41.627 27.352,41.033C26.372,40.18 25.541,39.588 25.24,39.76C24.25,40.32 22.991,45.6 22.711,48.42C22.47,50.847 22.153,53.517 22.047,54.42C20.653,54.226 19.016,53.944 18,53.58C16.035,52.875 12.155,50.382 11.822,51.586C11.819,51.588 11.814,51.587 11.811,51.59C11.141,52.12 13.08,57.359 14.48,60.039C16.29,63.479 20.25,68.35 20.25,68.35L45.689,90.461L61.74,100.029C61.74,100.029 88.91,109.88 92.43,109.6C95.95,109.32 111.36,107.981 111.65,106.711C111.739,106.316 111.456,105.618 111.023,104.83C111.024,104.827 111.029,104.824 111.029,104.82C111.029,104.395 109.6,101.883 108.297,99.654C110.037,98.699 119.307,93.551 119.18,92.141C119.124,91.507 118.776,90.896 118.303,90.336C117.788,89.43 116.425,88.049 115.213,86.895C116.585,84.987 122.857,76.199 122.49,75.25C122.249,74.634 121.726,74.174 121.076,73.828C121.059,73.819 121.045,73.808 121.027,73.799C120.152,73.315 118.351,72.653 116.506,72.016C118.172,70.195 123.78,63.966 123.539,62.721C123.419,62.101 122.804,61.571 121.938,61.113C120.59,60.106 115.572,59.105 112.617,58.152C113.956,56.786 117.528,52.93 116.721,51.25C116.604,51.007 116.309,50.781 115.912,50.566C115.539,49.841 107.481,48.406 102.65,47.33C103.817,45.589 107.553,39.889 106.939,39.07C106.671,38.716 106.108,38.44 105.365,38.219C103.834,37.315 93.145,36.689 90.49,36.689C89.798,36.689 89.081,36.734 88.383,36.787C88.958,34.815 90.121,30.41 89.141,29.92C89.121,29.91 89.063,29.92 89.031,29.916C88.258,29.479 82.608,31.453 79.369,32.32C77.642,32.788 76,33.556 74.635,34.145C74.478,32.213 73.99,28.766 72.461,29.07Z" style="fill:rgb(133,92,82);fill-rule:nonzero;"/>
    <path id="path17276" d="M43.96,77.74L30.28,96.09C30.28,96.09 29.6,101.18 28.94,102.5C28.28,103.81 22.65,109.28 25.09,111.06C27.53,112.84 33.4,112.28 35.32,109.75C37.46,106.93 40.01,101.58 40.01,101.58C40.01,101.58 46.39,99.33 48.18,96.61C49.96,93.89 50.53,91.35 50.53,90.13C50.53,88.91 50.91,85.63 50.81,84.22C50.71,82.81 49.4,77.18 49.4,77.18L43.96,77.74Z" style="fill:rgb(242,141,94);fill-rule:nonzero;"/>
    <path id="path17280" d="M42.45,72.3C42.45,72.3 38.25,63.92 29.43,62.8C20.61,61.68 15.99,70.89 13.55,72.11C11.11,73.33 5.76,72.77 5.01,77.18C4.26,81.59 6.79,86.57 11.77,90.23C16.74,93.89 22.56,96.52 31.85,96.61C41.14,96.7 46.14,88.9 46.96,83.75C47.34,81.4 47.34,78.59 47.34,78.59C47.34,78.59 54,76.81 56.07,68.74C58.13,60.67 50.43,60.14 46.68,64.61C43.3,68.64 42.45,72.3 42.45,72.3Z" style="fill:rgb(255,176,145);fill-rule:nonzero;"/>
    <path id="path172801" serif:id="path17280" d="M42.45,72.3C42.45,72.3 38.25,63.92 29.43,62.8C20.61,61.68 15.99,70.89 13.55,72.11C11.11,73.33 5.76,72.77 5.01,77.18C4.26,81.59 6.79,86.57 11.77,90.23C16.74,93.89 22.56,96.52 31.85,96.61C41.14,96.7 46.14,88.9 46.96,83.75C47.34,81.4 47.34,78.59 47.34,78.59C47.34,78.59 54,76.81 56.07,68.74C58.13,60.67 50.43,60.14 46.68,64.61C43.3,68.64 42.45,72.3 42.45,72.3Z" style="fill:rgb(255,204,128);fill-opacity:0.4;fill-rule:nonzero;"/>
    <path id="path17282" d="M56.11,102.78C56.11,102.78 37.81,113.76 39.57,114.68C41.33,115.6 42.67,116.51 46.96,114.68C51.25,112.85 58.93,107.5 58.93,107.5C58.93,107.5 64.21,109.05 69.35,109.26C74.49,109.47 83.64,109.89 83.64,109.89L88.07,104.4L60.69,98.14L56.11,102.78Z" style="fill:rgb(242,141,94);fill-rule:nonzero;"/>
    <path id="path17284" d="M59.49,90.81C65.33,91.94 71.88,94.05 76.88,96.16C81.88,98.27 92.67,103.25 92.86,108.13C93,111.79 90.33,114.11 88.28,114.82C85.94,115.63 78.14,116.72 75.19,115.17C72.23,113.62 71.46,110.95 75.19,108.98C78.92,107.01 84.06,107.15 83.71,105.32C83.36,103.49 76.32,105.6 70.27,105.04C64.94,104.54 57.81,103.98 57.81,103.98C57.81,103.98 53.2,108.19 50.35,110.74C47.04,113.7 44.19,116.5 40,115.24C36.48,114.18 35.21,112 36.69,110.59C38.17,109.18 40.14,107.7 40.7,107C41.26,106.3 42.11,104.4 42.11,104.4C42.11,104.4 41.05,103.27 40.21,102.22C39.37,101.16 39.01,100.32 39.01,100.32C39.01,100.32 44.29,97.43 46.26,95.46C48.23,93.49 50.06,90.04 50.06,89.76C50.06,89.48 53.87,89.73 59.49,90.81Z" style="fill:rgb(255,176,145);fill-rule:nonzero;"/>
    <path id="path172841" serif:id="path17284" d="M59.49,90.81C65.33,91.94 71.88,94.05 76.88,96.16C81.88,98.27 92.67,103.25 92.86,108.13C93,111.79 90.33,114.11 88.28,114.82C85.94,115.63 78.14,116.72 75.19,115.17C72.23,113.62 71.46,110.95 75.19,108.98C78.92,107.01 84.06,107.15 83.71,105.32C83.36,103.49 76.32,105.6 70.27,105.04C64.94,104.54 57.81,103.98 57.81,103.98C57.81,103.98 53.2,108.19 50.35,110.74C47.04,113.7 44.19,116.5 40,115.24C36.48,114.18 35.21,112 36.69,110.59C38.17,109.18 40.14,107.7 40.7,107C41.26,106.3 42.11,104.4 42.11,104.4C42.11,104.4 41.05,103.27 40.21,102.22C39.37,101.16 39.01,100.32 39.01,100.32C39.01,100.32 44.29,97.43 46.26,95.46C48.23,93.49 50.06,90.04 50.06,89.76C50.06,89.48 53.87,89.73 59.49,90.81Z" style="fill:rgb(255,204,128);fill-opacity:0.4;fill-rule:nonzero;"/>
    <path id="path17288" d="M45.2,74.34C46.43,76.15 49,74.9 50.62,73.07C52.24,71.24 53.09,69.19 51.82,67.79C50.34,66.17 47.88,67.93 46.75,69.2C45.62,70.47 44.14,72.79 45.2,74.34Z" style="fill:rgb(235,122,164);fill-rule:nonzero;"/>
    <path id="path17290" d="M10.5,82.15C10.5,82.15 13.46,79.48 13.6,78.07C13.74,76.66 12.19,75.68 9.52,74.97C6.85,74.27 4.94,73.98 4.66,76.94C4.38,79.9 6.42,81.02 6.42,81.02C6.42,81.02 5.93,81.86 5.58,82.08C5.23,82.3 5.08,83.03 5.23,83.35C5.72,84.41 6.43,83.98 6.85,83.84C7.27,83.7 7.84,83.07 7.84,83.07C7.84,83.07 9.18,87.43 12.34,88.49C15.6,89.58 18.32,87.22 19.03,86.52C19.73,85.82 19.38,83.77 17.41,84.69C15.73,85.47 15.93,86.38 13.47,85.96C11.01,85.54 10.5,82.15 10.5,82.15Z" style="fill:rgb(33,33,33);fill-rule:nonzero;"/>
    <path id="path17292" d="M27.06,106.98C27.82,107.51 27.11,109.28 26.68,109.65C26.26,110.03 25.23,111.43 24.15,110.68C23.07,109.93 23.87,108.19 24.53,107.58C25.19,106.97 26.12,106.32 27.06,106.98Z" style="fill:rgb(235,122,164);fill-rule:nonzero;"/>
    <path id="path17294" d="M40.62,110.08C41.56,110.77 41.09,112.24 40.2,112.94C39.31,113.64 37.75,114.88 36.77,113.83C35.64,112.61 37.71,110.92 38.18,110.55C38.65,110.17 39.73,109.42 40.62,110.08Z" style="fill:rgb(235,122,164);fill-rule:nonzero;"/>
    <path id="path17296" d="M44.43,111.72C45.29,112.46 44.72,113.54 43.91,114.35C43.02,115.24 41.52,116.04 40.63,115.29C39.74,114.54 41.29,112.85 41.9,112.38C42.51,111.91 43.44,110.87 44.43,111.72Z" style="fill:rgb(235,122,164);fill-rule:nonzero;"/>
    <path id="path17298" d="M74.69,111.15C73.98,111.7 72.58,113.12 73.7,114.15C74.83,115.18 76.52,113.73 77.03,113.16C77.55,112.6 78.44,111.56 77.59,110.63C76.76,109.7 75.54,110.5 74.69,111.15Z" style="fill:rgb(235,122,164);fill-rule:nonzero;"/>
    <path id="path17300" d="M77.13,115.61C77.86,116.43 79.24,115.66 80.13,114.77C80.55,114.35 81.35,113.13 80.46,112.33C79.87,111.8 78.58,112.19 77.6,113.17C76.62,114.15 76.43,114.82 77.13,115.61Z" style="fill:rgb(235,122,164);fill-rule:nonzero;"/>
    <path id="path17302" d="M37.03,50.34C35.55,53.86 39.28,55.41 40.76,52.38C42.24,49.35 43.65,46.04 44.42,43.23C45.05,40.95 43.36,40.06 41.89,42.39C40.41,44.71 38.08,47.84 37.03,50.34Z" style="fill:rgb(141,107,99);fill-rule:nonzero;"/>
    <path id="path17304" d="M56.81,47.52C54.88,49.12 50.3,54.37 48.93,56.25C46.61,59.42 50.62,62.09 52.66,59.28C54.7,56.46 57.94,50.97 59,49.36C60.05,47.73 58.5,46.11 56.81,47.52Z" style="fill:rgb(161,134,127);fill-rule:nonzero;"/>
    <path id="path17306" d="M60.33,42.45C59,43.72 60.47,46.53 62.93,44.7C65.39,42.87 66.73,41.74 68,40.41C69.27,39.07 68.35,37.59 66.38,38.51C64.41,39.43 61.81,41.05 60.33,42.45Z" style="fill:rgb(93,64,55);fill-rule:nonzero;"/>
    <path id="path17308" d="M64.56,48.16C61.6,50.54 64.98,54.07 67.59,51.96C70.19,49.85 75.05,45.13 76.88,43.23C78.71,41.33 77.59,39.22 74.91,40.98C72.65,42.45 67.44,45.83 64.56,48.16Z" style="fill:rgb(141,107,99);fill-rule:nonzero;"/>
    <path id="path17310" d="M62.23,63.08C59.2,65.47 62.14,69.23 65.54,66.39C68.99,63.5 73.85,59.35 76.1,57.03C78.08,54.99 76.17,53.09 73.57,54.92C71.29,56.51 65.99,60.11 62.23,63.08Z" style="fill:rgb(161,134,127);fill-rule:nonzero;"/>
    <path id="path17312" d="M84.83,55.19C81.17,57.23 83.63,60.4 86.45,58.85C88.66,57.64 95.53,53.15 96.52,52.23C97.51,51.31 96.91,49.67 95.25,50.26C93.28,50.97 87.15,53.9 84.83,55.19Z" style="fill:rgb(141,107,99);fill-rule:nonzero;"/>
    <path id="path17314" d="M81.73,45.9C78.84,48.08 81.52,51.46 84.05,49.56C85.98,48.12 91.37,42.38 92.22,41.39C93.07,40.4 92.29,39 90.74,40.05C89.4,40.97 84.23,44.02 81.73,45.9Z" style="fill:rgb(93,64,55);fill-rule:nonzero;"/>
    <path id="path17316" d="M93.49,59.49C91.13,60.81 72.42,71.07 69.84,72.79C66.46,75.04 69.28,79.76 72.59,77.58C75.3,75.8 93.8,63.12 95.26,62.16C97.71,60.54 96.37,57.87 93.49,59.49Z" style="fill:rgb(161,134,127);fill-rule:nonzero;"/>
    <path id="path17318" d="M83.35,79.06C79.69,80.61 81.59,84.48 84.76,83.28C87.93,82.08 97.64,78.07 99.89,76.73C102.14,75.39 101.09,73 99.05,73.7C97.01,74.41 87.26,77.4 83.35,79.06Z" style="fill:rgb(161,134,127);fill-rule:nonzero;"/>
    <path id="path17320" d="M100.39,63.99C97.86,65.47 99.76,68 102.01,67.02C103.69,66.29 106.51,64.84 107.5,64.13C108.49,63.43 108.13,61.38 106.09,62.02C104.68,62.46 102.32,62.87 100.39,63.99Z" style="fill:rgb(93,64,55);fill-rule:nonzero;"/>
    <path id="path17322" d="M92.15,87.29C89.35,87.83 90.06,92.13 92.99,91.65C96.93,91.02 104.16,88.67 105.52,88.34C107.28,87.92 107.7,85.03 104.18,85.52C101.02,85.98 95.46,86.66 92.15,87.29Z" style="fill:rgb(161,134,127);fill-rule:nonzero;"/>
    <path id="path17324" d="M98.06,95.67C95.24,95.53 95.1,99.4 98.34,99.4C100.52,99.4 102,99.26 103.48,98.98C105.3,98.63 105.38,96.45 103.13,96.16C101.66,95.98 99.83,95.76 98.06,95.67Z" style="fill:rgb(161,134,127);fill-rule:nonzero;"/>
    <path id="path17326" d="M105.45,76.95C103.41,77.79 104.39,80.61 106.58,79.91C108.37,79.33 110.17,78.5 111.72,77.66C113.01,76.96 112.42,74.99 110.8,75.34C109.18,75.68 106.94,76.33 105.45,76.95Z" style="fill:rgb(141,107,99);fill-rule:nonzero;"/>
    <ellipse id="path18031" cx="28.161" cy="74.38" rx="3.008" ry="3.597" style="fill:rgb(33,33,33);"/>
</svg>

<?xml version="1.0" encoding="utf-8"?>
<!-- Generator: Adobe Illustrator 24.1.2, SVG Export Plug-In . SVG Version: 6.00 Build 0)  -->
<svg version="1.1" id="Layer_2" xmlns="http://www.w3.org/2000/svg" xmlns:xlink="http://www.w3.org/1999/xlink" x="0px" y="0px"
	 viewBox="0 0 128 128" style="enable-background:new 0 0 128 128;" xml:space="preserve">
<path style="fill:#6D4A37;" d="M45.69,90.46l16.05,9.57c0,0,27.17,9.85,30.69,9.57c3.52-0.28,18.93-1.62,19.22-2.89
	c0.32-1.43-4.01-6.69-4.01-6.69s11.68-6.33,11.54-7.88c-0.21-2.39-4.5-4.5-4.5-4.5s8.22-11.33,7.81-12.39
	c-0.99-2.53-6.69-2.46-6.69-2.46s8.02-8.62,7.74-10.07c-0.56-2.89-11.54-3.94-11.54-3.94s5.7-5.49,4.72-7.53
	c-1.04-2.16-14.57-3.17-14.57-3.17s5.51-8.05,4.79-9.01c-1.97-2.6-18.86-1.27-18.86-1.27s2.32-7.25,1.06-7.88
	c-0.92-0.46-14.43,5.49-14.43,5.49s-0.14-6.76-2.25-6.34c-2.11,0.42-13.09,12.46-13.09,12.46s-5.28-7.81-6.26-7.81
	s-7.25,7.88-7.25,7.88s-3.66-8.45-5.49-8.45c-1.83,0-7.74,13.23-7.74,13.23s-6.41-7.18-7.39-6.62c-0.99,0.56-2.25,5.84-2.53,8.66
	c-0.28,2.82-0.77,6.97-0.77,6.97s-5.14-1.48-5.84-2.04c-0.7-0.56-3.31-2.53-4.29-1.76c-0.67,0.53,1.27,5.77,2.67,8.45
	c1.81,3.44,5.77,8.31,5.77,8.31L45.69,90.46z"/>
<path style="fill:#F7BB86;" d="M43.96,77.74L30.28,96.09c0,0-0.68,5.09-1.34,6.41c-0.66,1.31-6.29,6.78-3.85,8.56
	c2.44,1.78,8.31,1.22,10.23-1.31c2.14-2.82,4.69-8.17,4.69-8.17s6.38-2.25,8.17-4.97c1.78-2.72,2.35-5.26,2.35-6.48
	s0.38-4.5,0.28-5.91s-1.41-7.04-1.41-7.04L43.96,77.74z"/>
<path style="fill:#865B52;" d="M17.96,59.77c0,0,8.31-3.38,13.66-2.39s14.5,7.32,19.01,13.94s8.59,13.8,15.06,18.86
	c6.48,5.07,11.54,10,19.29,13.09c7.74,3.1,15.06,2.32,17.6,2.18s8.45,0.07,8.45-0.63c0-0.7-4.5-8.17-4.5-8.17s11.54-4.65,11.97-5.63
	s-5.21-5.91-5.21-5.91s8.45-10.28,8.17-10.98c-0.28-0.7-8.73-3.38-8.73-3.38s9.57-7.6,9.57-9.15c0-1.55-10.98-3.1-11.83-4.5
	c-0.84-1.41,5.49-5.49,5.49-6.48s-16.61-3.52-16.89-4.36c-0.28-0.84,6.9-6.9,6.48-7.88c-0.42-0.99-12.25-1.69-15.06-1.69
	c-2.82,0-6.05,0.7-6.76,0c-0.7-0.7,4.65-5.21,5.35-6.48c0.7-1.27-6.05,1.13-9.71,2.11c-3.66,0.99-7.04,3.38-7.88,2.39
	c-0.84-0.99,2.67-5.49,0.99-5.63c-1.69-0.14-7.18,4.08-8.87,5.91c-1.69,1.83-4.93,5.21-4.93,5.21s-3.66-5.26-4.08-4.79
	c-0.56,0.63-3.94,6.48-4.93,6.76c-0.99,0.28-7.04-7.74-7.74-7.74s-7.32,12.25-7.32,12.25s-6.48-5.35-7.46-5.77
	c-0.87-0.37-2.67,13.8-2.67,13.8s-4.5-0.42-6.48-1.13s-5.91-3.24-6.19-1.97s1.83,4.22,3.1,5.63S17.96,59.77,17.96,59.77z"/>
<path style="fill:#FED3B4;" d="M42.45,72.3c0,0-4.2-8.38-13.02-9.5s-13.44,8.09-15.88,9.31s-7.79,0.66-8.54,5.07
	s1.78,9.39,6.76,13.05c4.97,3.66,10.79,6.29,20.08,6.38c9.29,0.09,14.29-7.71,15.11-12.86c0.38-2.35,0.38-5.16,0.38-5.16
	s6.66-1.78,8.73-9.85c2.06-8.07-5.64-8.6-9.39-4.13C43.3,68.64,42.45,72.3,42.45,72.3z"/>
<path style="fill:#F6BA84;" d="M56.11,102.78c0,0-18.3,10.98-16.54,11.9c1.76,0.92,3.1,1.83,7.39,0c4.29-1.83,11.97-7.18,11.97-7.18
	s5.28,1.55,10.42,1.76s14.29,0.63,14.29,0.63l4.43-5.49l-27.38-6.26L56.11,102.78z"/>
<path style="fill:#FFD1B7;" d="M59.49,90.81c5.84,1.13,12.39,3.24,17.39,5.35c5,2.11,15.79,7.09,15.98,11.97
	c0.14,3.66-2.53,5.98-4.58,6.69c-2.34,0.81-10.14,1.9-13.09,0.35c-2.96-1.55-3.73-4.22,0-6.19c3.73-1.97,8.87-1.83,8.52-3.66
	c-0.35-1.83-7.39,0.28-13.44-0.28c-5.33-0.5-12.46-1.06-12.46-1.06s-4.61,4.21-7.46,6.76c-3.31,2.96-6.16,5.76-10.35,4.5
	c-3.52-1.06-4.79-3.24-3.31-4.65c1.48-1.41,3.45-2.89,4.01-3.59c0.56-0.7,1.41-2.6,1.41-2.6s-1.06-1.13-1.9-2.18
	c-0.84-1.06-1.2-1.9-1.2-1.9s5.28-2.89,7.25-4.86c1.97-1.97,3.8-5.42,3.8-5.7S53.87,89.73,59.49,90.81z"/>
<path style="fill:#000304;" d="M30.7,75.4c0.12,2.05,0.92,4.29,3.66,4.29c2.75,0,3.17-2.53,2.96-4.79s-1.34-4.22-3.45-4.15
	C31.75,70.82,30.56,73,30.7,75.4z"/>
<path style="fill:#F27CB6;" d="M45.2,74.34c1.23,1.81,3.8,0.56,5.42-1.27s2.47-3.88,1.2-5.28c-1.48-1.62-3.94,0.14-5.07,1.41
	C45.62,70.47,44.14,72.79,45.2,74.34z"/>
<path style="fill:#4B4C4D;" d="M10.5,82.15c0,0,2.96-2.67,3.1-4.08c0.14-1.41-1.41-2.39-4.08-3.1c-2.67-0.7-4.58-0.99-4.86,1.97
	c-0.28,2.96,1.76,4.08,1.76,4.08s-0.49,0.84-0.84,1.06s-0.5,0.95-0.35,1.27c0.49,1.06,1.2,0.63,1.62,0.49
	c0.42-0.14,0.99-0.77,0.99-0.77s1.34,4.36,4.5,5.42c3.26,1.09,5.98-1.27,6.69-1.97c0.7-0.7,0.35-2.75-1.62-1.83
	c-1.68,0.78-1.48,1.69-3.94,1.27S10.5,82.15,10.5,82.15z"/>
<path style="fill:#F47DAD;" d="M27.06,106.98c0.76,0.53,0.05,2.3-0.38,2.67c-0.42,0.38-1.45,1.78-2.53,1.03
	c-1.08-0.75-0.28-2.49,0.38-3.1S26.12,106.32,27.06,106.98z"/>
<path style="fill:#F47DAD;" d="M40.62,110.08c0.94,0.69,0.47,2.16-0.42,2.86c-0.89,0.7-2.45,1.94-3.43,0.89
	c-1.13-1.22,0.94-2.91,1.41-3.28C38.65,110.17,39.73,109.42,40.62,110.08z"/>
<path style="fill:#F47DAD;" d="M44.43,111.72c0.86,0.74,0.29,1.82-0.52,2.63c-0.89,0.89-2.39,1.69-3.28,0.94
	c-0.89-0.75,0.66-2.44,1.27-2.91S43.44,110.87,44.43,111.72z"/>
<path style="fill:#F47DAD;" d="M74.69,111.15c-0.71,0.55-2.11,1.97-0.99,3c1.13,1.03,2.82-0.42,3.33-0.99
	c0.52-0.56,1.41-1.6,0.56-2.53C76.76,109.7,75.54,110.5,74.69,111.15z"/>
<path style="fill:#F47DAD;" d="M77.13,115.61c0.73,0.82,2.11,0.05,3-0.84c0.42-0.42,1.22-1.64,0.33-2.44
	c-0.59-0.53-1.88-0.14-2.86,0.84S76.43,114.82,77.13,115.61z"/>
<path style="fill:#9D6C5B;" d="M37.03,50.34c-1.48,3.52,2.25,5.07,3.73,2.04c1.48-3.03,2.89-6.34,3.66-9.15
	c0.63-2.28-1.06-3.17-2.53-0.84C40.41,44.71,38.08,47.84,37.03,50.34z"/>
<path style="fill:#C5886F;" d="M56.81,47.52c-1.93,1.6-6.51,6.85-7.88,8.73c-2.32,3.17,1.69,5.84,3.73,3.03
	c2.04-2.82,5.28-8.31,6.34-9.92C60.05,47.73,58.5,46.11,56.81,47.52z"/>
<path style="fill:#6F4B3B;" d="M60.33,42.45c-1.33,1.27,0.14,4.08,2.6,2.25c2.46-1.83,3.8-2.96,5.07-4.29
	c1.27-1.34,0.35-2.82-1.62-1.9S61.81,41.05,60.33,42.45z"/>
<path style="fill:#9D6C5B;" d="M64.56,48.16c-2.96,2.38,0.42,5.91,3.03,3.8c2.6-2.11,7.46-6.83,9.29-8.73s0.71-4.01-1.97-2.25
	C72.65,42.45,67.44,45.83,64.56,48.16z"/>
<path style="fill:#C5886F;" d="M62.23,63.08c-3.03,2.39-0.09,6.15,3.31,3.31c3.45-2.89,8.31-7.04,10.56-9.36
	c1.98-2.04,0.07-3.94-2.53-2.11C71.29,56.51,65.99,60.11,62.23,63.08z"/>
<path style="fill:#9D6C5B;" d="M84.83,55.19c-3.66,2.04-1.2,5.21,1.62,3.66c2.21-1.21,9.08-5.7,10.07-6.62s0.39-2.56-1.27-1.97
	C93.28,50.97,87.15,53.9,84.83,55.19z"/>
<path style="fill:#6F4B3B;" d="M81.73,45.9c-2.89,2.18-0.21,5.56,2.32,3.66c1.93-1.44,7.32-7.18,8.17-8.17s0.07-2.39-1.48-1.34
	C89.4,40.97,84.23,44.02,81.73,45.9z"/>
<path style="fill:#C5886F;" d="M93.49,59.49c-2.36,1.32-21.07,11.58-23.65,13.3c-3.38,2.25-0.56,6.97,2.75,4.79
	c2.71-1.78,21.21-14.46,22.67-15.42C97.71,60.54,96.37,57.87,93.49,59.49z"/>
<path style="fill:#C5886F;" d="M83.35,79.06c-3.66,1.55-1.76,5.42,1.41,4.22c3.17-1.2,12.88-5.21,15.13-6.55
	c2.25-1.34,1.2-3.73-0.84-3.03C97.01,74.41,87.26,77.4,83.35,79.06z"/>
<path style="fill:#6F4B3B;" d="M100.39,63.99c-2.53,1.48-0.63,4.01,1.62,3.03c1.68-0.73,4.5-2.18,5.49-2.89
	c0.99-0.7,0.63-2.75-1.41-2.11C104.68,62.46,102.32,62.87,100.39,63.99z"/>
<path style="fill:#C5886F;" d="M92.15,87.29c-2.8,0.54-2.09,4.84,0.84,4.36c3.94-0.63,11.17-2.98,12.53-3.31
	c1.76-0.42,2.18-3.31-1.34-2.82C101.02,85.98,95.46,86.66,92.15,87.29z"/>
<path style="fill:#C5886F;" d="M98.06,95.67c-2.82-0.14-2.96,3.73,0.28,3.73c2.18,0,3.66-0.14,5.14-0.42
	c1.82-0.35,1.9-2.53-0.35-2.82C101.66,95.98,99.83,95.76,98.06,95.67z"/>
<path style="fill:#9D6C5B;" d="M105.45,76.95c-2.04,0.84-1.06,3.66,1.13,2.96c1.79-0.58,3.59-1.41,5.14-2.25
	c1.29-0.7,0.7-2.67-0.92-2.32C109.18,75.68,106.94,76.33,105.45,76.95z"/>
</svg>
